X:1
T:Title
%%score 1 { 2 | 3 }
L:1/8
Q:1/4=120
M:2/2
K:Eb
V:1 treble nm="Grand Piano, Soprano"
V:2 bass nm="Choir Pad, From the Cyber Hymnal™"
V:3 bass 
V:1
 [EG]4 [B,E]2 [EF]2 | [EG]4 [EG]4 | [EA]2 [EA]2 [EA]2 [EA]2 | [EG]8 | [GB]4 [Ac]2 [GB]2 | %5
w: By~H.~H.~Snow,~1902 * *|||||
 [GB]4 [EG]4 | [EG]2 [EG]2 [DF]2 E2 | [DF]8 | [EG]4 [EG]2 [FA]2 | [GB]4 [GB]4 | %10
w: |||||
 [Ac]2 [Ac]2 [Ac]2 [Ac]2 | [GB]8 | [Ac]4 [Ad]2 [Ge]2 | [FB]4 [EG]4 | [EB]2 [FA]2 [EG]2 [DF]2 | %15
w: |||||
 [B,E]8- | [B,E]4 z4 |] %17
w: ||
V:2
 B,4 G,2 A,2 | B,4 E2[K:treble] _D2 | C2 C2 C2 =B,2 | B,8 | E4 E2 E2 | E4[K:bass] B,4 | %6
 B,2 B,2 A,2 G,2 | B,8 | B,4 B,2 B,2 | E4 E4 | E2 E2 E2 E2 | E8 | E4[K:bass] B,2 B,2 | B,4 B,4 | %14
 B,2 C2 B,2 A,2 | G,8- | G,4 z4 |] %17
V:3
 E,4 E,2 E,2 | E,4 E,4 | A,,2 A,,2 A,,2 A,,2 | E,8 | E,4 E,2 E,2 | E,4 E,4 | E,2 E,2 B,,2 C,2 | %7
 B,,8 | E,4 E,2 E,2 | E,4 E,4 | A,2 A,2 A,,2 C,2 | E,8 | A,4 F,2 E,2 | D,4 E,4 | %14
 G,,2 A,,2 B,,2 B,,2 | E,8- | E,4 z4 |] %17

